X: 5383
T: Bucks Of Oranmore, The
R: reel
M: 4/4
K: Dmajor
A2 FA ~A2 dB|A2 FA BEEB|A2 FA ADFA|defd efdB|
A2 FA ~A2 dB|ADFA BEdE|DF ~F2 AFAB|defd efdB||
ADDD ADBD|ADFA BEEE|ADDD ADFA|defd efdB|
ADDD ADBD|ADFA BEEE|DF ~F2 AFAB|defd efdf|
(3ad'a fd ed ~d2|adfd eBBA|adfd ed ~d2|egfd edBA|
Aafd ed ~d2|adfd eBBA|fa ~a2 bfaf|egfd edBf|
(3faf df efdf|(3faf df eBBA|(3faf df efdf|(3efg fd edBA|
(3faf df efdf|afdf eBBA|fa ~a2 bfaf|egfd eBdB|
Adfd edfd|Adfd eB~B2|Ad ~d2 fd ~d2|adfd eBdB|
Adfd edfd|Adfd eBBA|fa ~a2 bfaf|egfd eBdB|

